!!!!SEGMENT: pl-kk--kk-i-6--011_anonim--alleluia-prophetae-sancti.krn
!!!cenid: 16xx:966
!!!COM: Anonim
!!!COM-rismid: pe30004985
!!!CDT:
!!!CNT:
!!!OTL: Alleluia prophetae sancti
!!!PDT:
!!!AGN: Sacred
!!!SMS-siglum: PL-Kk
!!!SMS-shelfmark: Kk.I.6
!!!SMS-shelfwork: 011 W
!!!SMS-variant:
!!!SMS-altvar:
!!!NIFC-rismid: 1001135665
!!!URL-scan: http://repozytorium.nifc.pl/skany/pl-kk-nut--i-6
!!!ONB-nifc: UWAGA: C (skan 0009, s. 14-15), T (skan 0108-0109, s. 21-23), B (skan 0220, s. 20-21) Następny utwór: Gaude Maria virgo
!!!key:
**kern	**text	**text	**kern	**text	**text	**kern	**text	**text	**text
*part3	*part3	*part3	*part2	*part2	*part2	*part1	*part1	*part1	*part1
*staff3	*staff3	*staff3	*staff2	*staff2	*staff2	*staff1	*staff1	*staff1	*staff1
*group1	*	*	*group1	*	*	*group1	*	*	*
*Iempty	*	*	*Itenor	*	*	*Ivox	*	*	*
*I"Baſsus.	*	*	*I"Tenor.	*	*	*I"Cantus.	*	*	*
*I'B	*	*	*I'T	*	*	*I'S	*	*	*
*clefF4	*	*	*clefC4	*	*	*clefC4	*	*	*
*k[]	*	*	*k[]	*	*	*k[]	*	*	*
*C:	*	*	*C:	*	*	*C:	*	*	*
*M2/1	*	*	*M2/1	*	*	*M2/1	*	*	*
*met(C|)	*	*	*met(C|)	*	*	*met(C|)	*	*	*
*all\middle	*	*	*all\middle	*	*	*	*	*	*
=1-	=1-	=1-	=1-	=1-	=1-	=1-	=1-	=1-	=1-
*	*	*	*	*	*	*lig	*	*	*
1C	Al-	.	0.G	Al-	.	1C	Al-	.	.
2GG/	-le-	.	.	.	.	1D	.	.	.
2.GG/	-lu-	.	.	.	.	.	.	.	.
*	*	*	*	*	*	*Xlig	*	*	*
=2-	=2-	=2-	=2-	=2-	=2-	=2-	=2-	=2-	=2-
*	*	*	*	*	*	*lig	*	*	*
.	.	.	.	.	.	1D	-le-	.	.
4AA/	.	.	.	.	.	.	.	.	.
4BB/	.	.	.	.	.	.	.	.	.
4C/	.	.	.	.	.	.	.	.	.
2.D/	-ia	.	2F/	-le-	.	1F	.	.	.
.	.	.	2.A/	-lu-	.	.	.	.	.
4E\	.	.	.	.	.	.	.	.	.
*	*	*	*	*	*	*Xlig	*	*	*
=3-	=3-	=3-	=3-	=3-	=3-	=3-	=3-	=3-	=3-
*2\right	*	*	*	*	*	*lig	*	*	*
2F\	.	.	.	.	.	1F	-lu-	.	.
.	.	.	4B\	.	.	.	.	.	.
*	*	*	*2\right	*	*	*	*	*	*
2FF/	.	.	2c\	-ia	.	.	.	.	.
*	*ij	*	*	*	*	*	*	*	*
2.C/	Al-	.	4C/	.	.	1E	.	.	.
.	.	.	4D/	.	.	.	.	.	.
.	.	.	4E/	.	.	.	.	.	.
4BB/	.	.	4F/	.	.	.	.	.	.
*	*	*	*	*	*	*Xlig	*	*	*
=4-	=4-	=4-	=4-	=4-	=4-	=4-	=4-	=4-	=4-
*	*	*	*	*	*	*custos:D	*	*	*
2GG/	le-	.	2G/	.	.	1D	.	.	.
2AA/	.	.	4F/	.	.	.	.	.	.
*	*	*	*custos:D	*	*	*	*	*	*
.	.	.	4E/	.	.	.	.	.	.
!	!	!	!LO:LB:g=original	!	!	!LO:LB:g=original	!	!	!
1BB	.	.	2D/	.	.	1D	.	.	.
.	.	.	2d\	.	.	.	.	.	.
=5-	=5-	=5-	=5-	=5-	=5-	=5-	=5-	=5-	=5-
1AA	-lu-	.	2c\	.	.	0E;;	-ia	.	.
.	.	.	1A	.	.	.	.	.	.
1E;<	-ia	.	.	.	.	.	.	.	.
.	.	.	2G;</	.	.	.	.	.	.
=6-	=6-	=6-	=6-	=6-	=6-	=6-	=6-	=6-	=6-
*	*Xij	*	*	*ij	*	*lig	*ij	*	*
2.D/	Al-	.	4A/	Al-	.	1F	Al-	.	.
.	.	.	4G/	.	.	.	.	.	.
.	.	.	4F/	.	.	.	.	.	.
4C/	.	.	4E/	.	.	.	.	.	.
2BB/	.	.	2D/	.	.	1G	.	.	.
*custos:AA	*	*	*	*	*	*	*	*	*
2C/	-le-	.	2E/	-le-	.	.	.	.	.
*	*	*	*	*	*	*Xlig	*	*	*
!LO:LB:g=original	!	!	!	!	!	!	!	!	!
=7-	=7-	=7-	=7-	=7-	=7-	=7-	=7-	=7-	=7-
*	*	*	*	*	*	*lig	*	*	*
1AA	-lu-	.	1C	-lu-	.	1F	-le-	.	.
1GG	-ia	.	1D	.	.	1G	.	.	.
*	*ij	*	*	*	*	*Xlig	*	*	*
=8-	=8-	=8-	=8-	=8-	=8-	=8-	=8-	=8-	=8-
!	!	!	!	!	!	!LO:TX:t=P:problem=brak taktu nr 8	!	!	!
2.G\	Al-	.	1C	-ia	.	0ryy	.	.	.
*	*	*	*	*Xij	*	*	*	*	*
4F\	.	.	.	.	.	.	.	.	.
2.D/	-le-	.	2rD	.	.	.	.	.	.
.	.	.	2F/	Al-	.	.	.	.	.
4E\	.	.	.	.	.	.	.	.	.
=9-	=9-	=9-	=9-	=9-	=9-	=9-	=9-	=9-	=9-
2.F\	.	.	1.A	-(le-	.	1D	.	.	.
4E\	.	.	.	.	.	.	.	.	.
*	*	*	*	*	*	*lig	*	*	*
4D/	.	.	.	.	.	1F	-lu-	.	.
4C/	.	.	.	.	.	.	.	.	.
2D/	.	.	2B\	.	.	.	.	.	.
=10-	=10-	=10-	=10-	=10-	=10-	=10-	=10-	=10-	=10-
2C/	.	.	4c\	.	.	1G	.	.	.
.	.	.	4C/	.	.	.	.	.	.
2BB/	-lu-	.	2D/	-lu-	.	.	.	.	.
*	*	*	*	*	*	*Xlig	*	*	*
*	*	*	*custos:F	*	*	*	*	*	*
!	!	!	!LO:TX:b:t=Poſt Partum Verte	!	!	!	!	!	!
1AA	-ia	.	1E	-i)a	.	0A	-ia	.	.
!	!	!	!LO:PB:g=original	!	!	!	!	!	!
=11-	=11-	=11-	=11-	=11-	=11-	=11-	=11-	=11-	=11-
1D	Al-	.	1F	Al-	.	.	.	.	.
*	*	*	*	*ij	*	*lig	*	*	*
1GG	-le-	.	2D/	-le-	.	1G	Al-	.	.
.	.	.	1G/	.	.	.	.	.	.
=12-	=12-	=12-	=12-	=12-	=12-	=12-	=12-	=12-	=12-
1C	-lu-	.	.	.	.	1E	.	.	.
.	.	.	2.A/	.	.	.	.	.	.
*	*	*	*	*	*	*Xlig	*	*	*
*	*	*	*	*	*	*lig	*	*	*
1FF	-ia	.	.	.	.	1F	-le-	.	.
.	.	.	4B\	-lu-	.	.	.	.	.
.	.	.	1c\	-ia	.	.	.	.	.
=13-	=13-	=13-	=13-	=13-	=13-	=13-	=13-	=13-	=13-
2rBB	.	.	.	.	.	1D	.	.	.
*custos:G	*	*	*	*	*	*	*	*	*
2F\	Al-	.	2B\	Al-	.	.	.	.	.
*	*	*	*	*	*	*Xlig	*	*	*
*	*	*	*	*	*	*lig	*	*	*
!LO:LB:g=original	!	!	!	!	!	!	!	!	!
1G	-le-	.	1c	-le-	.	1C	-lu-	.	.
=14-	=14-	=14-	=14-	=14-	=14-	=14-	=14-	=14-	=14-
2GG/	.	.	2B\	.	.	1D	.	.	.
2BB/	.	.	2G/	.	.	.	.	.	.
*	*	*	*	*	*	*Xlig	*	*	*
*	*	*	*	*	*	*lig	*	*	*
1AA	-lu-	.	2A/	.	.	1E	.	.	.
.	.	.	1c\	-lu-	.	.	.	.	.
=15-	=15-	=15-	=15-	=15-	=15-	=15-	=15-	=15-	=15-
1D	-ia	.	.	.	.	1F	.	.	.
.	.	.	2B\	-ia	.	.	.	.	.
*	*	*	*	*	*	*Xlig	*	*	*
*	*	*	*	*	*	*lig	*	*	*
1C	Al-	.	1c	Al-	.	1G	.	.	.
=16-	=16-	=16-	=16-	=16-	=16-	=16-	=16-	=16-	=16-
1D	-le-	.	1.A	-le-	.	1F	.	.	.
*	*	*	*	*	*	*Xlig	*	*	*
2AA/	.	.	.	.	.	[1El	-ia	.	.
1C/	.	.	4G/	.	.	.	.	.	.
.	.	.	4F/	.	.	.	.	.	.
=17-	=17-	=17-	=17-	=17-	=17-	=17-	=17-	=17-	=17-
.	.	.	2G/	.	.	0E_	-ia	.	.
*	*	*	*	*	*	*	*Xij	*	*
2AA/	.	.	1A	.	.	.	.	.	.
2.C/	.	.	.	.	.	.	.	.	.
!	!	!	!LO:TX:b:t=P:problem=♯ below	!	!	!	!	!	!
.	.	.	4G#X/	-lu-	.	.	.	.	.
!	!	!	!LO:TX:b:t=P:problem=♯ below	!	!	!	!	!	!
4D/	-lu-	.	4F#X/	.	.	.	.	.	.
=18-	=18-	=18-	=18-	=18-	=18-	=18-	=18-	=18-	=18-
!	!	!	!LO:TX:t=P:problem=♯ above	!	!	!	!	!	!
0El;;	-ia	.	0G#Xl;;	-ia	.	0E]	.	.	.
*	*Xij	*	*	*Xij	*	*	*	*	*
!LO:LB:g=original	!	!	!LO:LB:g=original	!	!	!LO:LB:g=original	!	!	!
=19||-	=19||-	=19||-	=19||-	=19||-	=19||-	=19||-	=19||-	=19||-	=19||-
*M2/1	*	*	*M2/1	*	*	*M2/1	*	*	*
*met(C|)	*	*	*met(C|)	*	*	*met(C|)	*	*	*
1D	Pro-	Post	0A	Pro-	Post	1F	Pro-	Post	Fe-
*	*	*	*	*	*	*lig	*	*	*
2.D/	-phe-	par-	.	.	.	1F	-phe-	par-	-lix
4E\	.	.	.	.	.	.	.	.	.
=20-	=20-	=20-	=20-	=20-	=20-	=20-	=20-	=20-	=20-
4F\	.	.	2.A/	-phe-	par-	1D	.	.	.
4E\	.	.	.	.	.	.	.	.	.
4F\	.	.	.	.	.	.	.	.	.
4G\	.	.	4B\	.	.	.	.	.	.
*	*	*	*	*	*	*Xlig	*	*	*
*	*	*	*	*	*	*lig	*	*	*
1A	.	.	4A/	.	.	1F	.	.	es
.	.	.	4B\	.	.	.	.	.	.
.	.	.	1c\	.	.	.	.	.	.
=21-	=21-	=21-	=21-	=21-	=21-	=21-	=21-	=21-	=21-
1F	-tae	.	.	.	.	1D	.	.	.
.	.	.	2B\	.	.	.	.	.	.
*	*	*	*	*	*	*Xlig	*	*	*
!	!	!	!	!	!	!LO:TX:t=P:global:problem=rodzielacz słów	!	!	!
1G	San-	.	1c	.	.	1C,<	-tae	-tum	Sa-
=22-	=22-	=22-	=22-	=22-	=22-	=22-	=22-	=22-	=22-
2GG/	.	tum	2B\	-ta	-tum	1D	San-	Vir-	-cra
2BB/	.	Vir-	2Gny/	San-	Vir-	.	.	.	.
0AA	-cti	-go	1A	-cti	-go	1E,<	-cti	-go	Vir-
=23-	=23-	=23-	=23-	=23-	=23-	=23-	=23-	=23-	=23-
.	.	.	2r	.	.	1E	prae-	in-	-go
.	.	.	2A/	prae-	in-	.	.	.	.
2rBB	.	.	1G	-di-	-vi-	1C	-di-	-vi-	Ma-
2E\	prae-	in-	.	.	.	.	.	.	.
=24-	=24-	=24-	=24-	=24-	=24-	=24-	=24-	=24-	=24-
*	*	*	*lig	*	*	*	*	*	*
1C	-di-	-vi-	1c	-ca-	-o-	1E	-ca-	-o-	.
*	*	*	*	*	*	*lig	*	*	*
2E\	-ca-	-o-	1B	.	.	1G	-ve-	-la-	.
*custos:F	*	*	*	*	*	*	*	*	*
2G\	-ve-	-la-	.	.	.	.	.	.	.
*	*	*	*Xlig	*	*	*	*	*	*
!LO:PB:g=original	!	!	!	!	!	!	!	!	!
=25-	=25-	=25-	=25-	=25-	=25-	=25-	=25-	=25-	=25-
2.F\	.	.	2A/	.	-la-	1A	.	.	.
.	.	.	1c	.	-ta	.	.	.	.
4E\	.	.	.	.	.	.	.	.	.
*	*	*	*	*	*	*Xlig	*	*	*
*	*	*	*	*	*	*lig	*	*	*
1D	.	.	.	.	.	1F	.	.	.
*	*	*	*custos:c	*	*	*	*	*	*
*	*	*	*	*	*ij	*	*	*	*
.	.	.	2B\	.	in-	.	.	.	.
!	!	!	!LO:LB:g=original	!	!	!	!	!	!
=26-	=26-	=26-	=26-	=26-	=26-	=26-	=26-	=26-	=26-
2C/	.	.	2c\	.	-vi-	1G	.	.	.
2BB/	.	.	2d\	.	-o-	.	.	.	.
*	*	*	*	*	*	*Xlig	*	*	*
*	*	*	*	*	*	*lig	*	*	*
1C	.	.	1c	-ve-	-la-	1E	.	.	ri-
=27-	=27-	=27-	=27-	=27-	=27-	=27-	=27-	=27-	=27-
*	*	*	*	*	*	*custos:D	*	*	*
1D	.	.	1A	-runt	-ta	1F	.	.	.
*	*	*	*	*	*Xij	*Xlig	*	*	*
!	!	!	!	!	!	!LO:LB:g=original	!	!	!
2GG/	-runt	-ta	1.B-X	na-	per	1D	.	-ta	-a
2.GG/	Na-	per	.	.	.	.	.	.	.
=28-	=28-	=28-	=28-	=28-	=28-	=28-	=28-	=28-	=28-
.	.	.	.	.	.	1D	-runt	per	et
4AA/	.	.	.	.	.	.	.	.	.
4BB/	.	.	4A/	.	.	.	.	.	.
4C/	.	.	4G/	.	.	.	.	.	.
*	*	*	*	*	*	*lig	*	*	*
2D/	.	man-	2Fny/	.	.	1D	Na-	man-	o-
2GG/	.	-si-	2G/	.	.	.	.	.	.
=29-	=29-	=29-	=29-	=29-	=29-	=29-	=29-	=29-	=29-
1D	-sci	-sti	2F/	ſci	man-	1F	.	.	.
.	.	.	2.D/	Sal-	-ſi-	.	.	.	.
*	*	*	*	*	*	*Xlig	*	*	*
2rBB	.	.	.	.	.	1F	ſci	.	-mni
.	.	.	4E/	.	.	.	.	.	.
2D/	Sal-	per	4F/	.	.	.	.	.	.
.	.	.	4G/	.	.	.	.	.	.
=30-	=30-	=30-	=30-	=30-	=30-	=30-	=30-	=30-	=30-
2.D/	-va-	man-	2A/	va-	.	1F	Sal-	.	lau-
.	.	.	2D/	-to-	sti	.	.	.	.
4C/	.	.	.	.	.	.	.	.	.
*custos:D	*	*	*	*	*	*	*	*	*
*	*	*	*	*	*ij	*lig	*	*	*
1AA	-to-	.	2A/	-rem	per	1E	-va-	-ſi-	-de
*	*	*	*	*ij	*	*	*	*	*
.	.	.	1c\	Sal-	man-	.	.	.	.
!LO:LB:g=original	!	!	!	!	!	!	!	!	!
=31-	=31-	=31-	=31-	=31-	=31-	=31-	=31-	=31-	=31-
*lig	*	*	*	*	*	*	*	*	*
1D	.	.	.	.	.	1F	.	.	.
.	.	.	2Bny\	-va-	.	.	.	.	.
*	*	*	*	*	*	*Xlig	*	*	*
1C	.	.	1c	-to-	-ſi-	1G	-to-	-ſti	dig-
*Xlig	*	*	*	*	*	*	*	*	*
=32-	=32-	=32-	=32-	=32-	=32-	=32-	=32-	=32-	=32-
*	*	*	*custos:B	*	*	*	*	*	*
*	*	*	*	*	*	*lig	*	*	*
1D	.	-si-	1A	-rem	-sti	1F	-rem,	.	-niſ-
*	*	*	*	*Xij	*Xij	*	*	*	*
!	!	!	!LO:LB:g=original	!	!	!	!	!	!
2AA/	-rem	-sti	2r	.	.	1E,<	.	.	-si-
2E\	de	De-	2B\	De	De-	.	.	.	.
*	*	*	*	*	*	*Xlig	*	*	*
=33-	=33-	=33-	=33-	=33-	=33-	=33-	=33-	=33-	=33-
1.G	Vir-	-i	2B\	Vir-	i	1E	de	De-	-ma,
.	.	.	2c\	-gi-	ge-	.	.	.	.
.	.	.	2.B\	.	.	1G	Virgi-	-i	qui-
4F\	.	.	.	.	.	.	.	.	.
4E\	.	.	4c\	.	.	.	.	.	.
=34-	=34-	=34-	=34-	=34-	=34-	=34-	=34-	=34-	=34-
2D/	.	.	4d\	.	.	1A	-ne	ge-	-a
.	.	.	4D/	.	.	.	.	.	.
2C/	.	.	2E/	.	.	.	.	.	.
*	*	*	*	*	*	*lig	*	*	*
1D	.	.	2.F/	.	.	1A	.	-ni-	ex
.	.	.	4G/	.	.	.	.	.	.
=35-	=35-	=35-	=35-	=35-	=35-	=35-	=35-	=35-	=35-
2.AA/	.	ge-	2.A/	.	.	1c	.	.	.
4BB/	.	.	4G/	.	.	.	.	.	.
*	*	*	*	*	*	*Xlig	*	*	*
*	*	*	*	*	*	*lig	*	*	*
2C/	.	.	2E/	ne	-ni-	1A	.	-trix	Te
*	*	*	*	*ij	*	*	*	*	*
2D/	.	.	2F/	Vir-	-trix	.	.	.	.
=36-	=36-	=36-	=36-	=36-	=36-	=36-	=36-	=36-	=36-
*	*	*	*	*	*	*custos:F	*	*	*
*	*	*	*	*	*ij	*	*	*	*
1E	.	.	1G	.	ge-	1G	.	.	or-
*	*	*	*	*	*	*Xlig	*	*	*
*	*	*	*	*	*	*lig	*	*	*
!	!	!	!	!	!	!LO:PB:g=original	!	!	!
1D	-gi-	-ni-	1A	.	.	1F	.	.	.
=37-	=37-	=37-	=37-	=37-	=37-	=37-	=37-	=37-	=37-
2GG/	-ne	-trix	2G/	-gi-	.	1G	.	.	.
*	*	*	*	*	*	*Xlig	*	*	*
1G	de	ge-	2E/	.	-ni-	.	.	.	.
*	*	*	*custos:G	*	*	*	*	*	*
.	.	.	1D	-ne	-trix	1A	.	.	.
*	*	*	*	*Xij	*Xij	*	*	*	*
*custos:E	*	*	*	*	*	*	*	*	*
2F\	Vir-	.	.	.	.	.	.	.	.
!LO:LB:g=original	!	!	!LO:LB:g=original	!	!	!	!	!	!
=38-	=38-	=38-	=38-	=38-	=38-	=38-	=38-	=38-	=38-
1E	-gi-	-ni-	2rF	.	.	1G	.	.	.
.	.	.	2G/	de	De-	.	.	.	.
2D/	-ne	-trix	2A/	Vir-	-i	1F	.	.	.
*	*ij	*ij	*	*	*	*	*	*	*
1D\	de	ge-	2F/	-gi-	ge-	.	.	.	.
=39-	=39-	=39-	=39-	=39-	=39-	=39-	=39-	=39-	=39-
*	*	*	*	*	*	*lig	*	*	*
.	.	.	2G/	-ne	.	1E	.	.	-tus
2C/	Vir-	.	1A	na-	.	.	.	.	.
1BB	-gi-	-ni-	.	.	.	1D	.	.	.
.	.	.	2G/	.	.	.	.	.	.
*	*	*	*	*	*	*Xlig	*	*	*
=40-	=40-	=40-	=40-	=40-	=40-	=40-	=40-	=40-	=40-
*	*	*	*	*	*	*lig	*	*	*
1AA	-ne	-trix	1A	.	.	1E	.	.	est
2r	.	.	1D	-ſci	-ni-	1F	.	.	.
2A\	de	ge-	.	.	.	.	.	.	.
*	*	*	*	*	*	*Xlig	*	*	*
=41-	=41-	=41-	=41-	=41-	=41-	=41-	=41-	=41-	=41-
*	*	*	*	*ij	*	*lig	*	*	*
2F\	.	.	4A/	na-	-trix	1D	.	.	Sol
.	.	.	4G/	.	.	.	.	.	.
1A	Vir-	.	4F/	.	.	.	.	.	.
.	.	.	4E/	.	.	.	.	.	.
.	.	.	1D	-ſci	.	1F	.	.	.
4G\	.	.	.	.	.	.	.	.	.
4F\	.	.	.	.	.	.	.	.	.
*	*	*	*	*Xij	*	*Xlig	*	*	*
=42-	=42-	=42-	=42-	=42-	=42-	=42-	=42-	=42-	=42-
1E	.	.	2rF	.	.	1G	.	.	.
.	.	.	2G/	de	.	.	.	.	.
2D/	.	.	2F/	Vir-	.	0A	.	.	.
2C/	.	.	2E/	-gi-	.	.	.	.	.
=43-	=43-	=43-	=43-	=43-	=43-	=43-	=43-	=43-	=43-
1D	.	.	1F	-ne	.	.	.	.	.
*	*	*	*	*ij	*	*	*	*	*
2E\	.	.	2G/	de	.	1G	.	.	.
*	*	*	*custos:A	*	*	*	*	*	*
2C/	-gi-	-ni-	2c\	Vir-	.	.	.	.	.
!	!	!	!LO:LB:g=original	!	!	!	!	!	!
=44-	=44-	=44-	=44-	=44-	=44-	=44-	=44-	=44-	=44-
1D	-ne	-trix	2.A/	.	.	1F	.	.	.
*	*Xij	*Xij	*	*	*	*	*	*	*
.	.	.	4B\	.	.	.	.	.	.
2r	.	.	2c\	.	.	1E	.	.	ju-
1G\	Ma-	in-	4B\	.	.	.	.	.	.
.	.	.	4A/	.	.	.	.	.	.
=45-	=45-	=45-	=45-	=45-	=45-	=45-	=45-	=45-	=45-
.	.	.	2B\	.	.	1E,<	.	in-	-sti-
4F\	.	.	2G/	-gi-	.	.	.	.	.
*custos:D	*	*	*	*	*	*	*	*	*
4E\	.	.	.	.	.	.	.	.	.
*	*	*	*	*	*	*lig	*	*	*
!LO:LB:g=original	!	!	!	!	!	!	!	!	!
2.D/	.	.	1A	-ne	.	1F	Ma-	-ter-	-ti-
4C/	.	.	.	.	.	.	.	.	.
*	*	*	*	*Xij	*	*	*	*	*
=46-	=46-	=46-	=46-	=46-	=46-	=46-	=46-	=46-	=46-
4D/	.	.	2r	.	.	1D	.	.	.
4E\	.	.	.	.	.	.	.	.	.
1F	.	.	2F/	Ma-	in-	.	.	.	.
*	*	*	*	*	*	*Xlig	*	*	*
*	*	*	*	*	*	*custos:D	*	*	*
.	.	.	2G/	-tre	-ter-	1C	-tre	-ce-	-ae
2E\	-tre	-ter-	2.A/	San-	-ce-	.	.	.	.
!	!	!	!	!	!	!	!LO:LB:g=original	!	!
=47-	=47-	=47-	=47-	=47-	=47-	=47-	=47-	=47-	=47-
*	*	*	*	*	*	*lig	*	*	*
2.F\	San-	-ce-	.	.	.	1D	San-	.	Chri-
.	.	.	4G/	.	.	.	.	.	.
.	.	.	4F/	.	.	.	.	.	.
4G\	.	.	4E/	.	.	.	.	.	.
4A\	.	.	2D/	.	-de	1F	.	.	.
4G\	.	.	.	.	.	.	.	.	.
4F\	.	.	2.A/	.	.	.	.	.	.
4E\	.	.	.	.	.	.	.	.	.
*	*	*	*	*	*	*Xlig	*	*	*
=48-	=48-	=48-	=48-	=48-	=48-	=48-	=48-	=48-	=48-
*	*	*	*	*	*	*lig	*	*	*
1D	.	.	.	.	.	1F	-cta	-de	stus
.	.	.	4F/	.	.	.	.	.	.
.	.	.	4A/	.	.	.	.	.	.
.	.	.	4B\	.	.	.	.	.	.
*	*	*	*custos:A	*	*	*	*	*	*
1C	-cta	-de	0c	.	.	1E	.	.	.
*	*	*	*	*	*	*Xlig	*	*	*
!	!	!	!LO:PB:g=original	!	!	!	!	!	!
=49-	=49-	=49-	=49-	=49-	=49-	=49-	=49-	=49-	=49-
*	*	*	*	*	*	*lig	*	*	*
2r	.	.	.	.	.	1C	.	pro	De-
2E\	Ma-	pro	.	.	.	.	.	.	.
2F\	-ri-	no-	2A/	-cta	.	1D	.	.	.
2D/	-a	-bis	1d\	Ma-	pro	.	.	.	.
*	*ij	*ij	*	*	*	*Xlig	*	*	*
=50-	=50-	=50-	=50-	=50-	=50-	=50-	=50-	=50-	=50-
2.F\	Ma-	pro	.	.	.	1D	Ma-	.	-us
.	.	.	4c\	.	No-	.	.	.	.
4G\	.	.	4B\	.	.	.	.	.	.
1A	-ri-	no-	4A/	-ri-	.	0F	-ri-	no-	no-
.	.	.	4F/	.	.	.	.	.	.
.	.	.	2.f\	.	.	.	.	.	.
=51-	=51-	=51-	=51-	=51-	=51-	=51-	=51-	=51-	=51-
*custos:G	*	*	*	*	*	*	*	*	*
1D	-a	-bis	.	.	.	.	.	.	.
*	*Xij	*Xij	*	*	*	*	*	*	*
.	.	.	4e\	.	.	.	.	.	.
.	.	.	1d	.	.	.	.	.	.
!LO:LB:g=original	!	!	!	!	!	!	!	!	!
2r	.	.	.	.	.	1E	.	.	.
2G\	Ma-	in-	2c\	.	.	.	.	.	.
=52-	=52-	=52-	=52-	=52-	=52-	=52-	=52-	=52-	=52-
2.F\	-ri-	-ter-	2d\	.	.	1D	.	.	.
.	.	.	2A/	a	-bis	.	.	.	.
4E\	.	.	.	.	.	.	.	.	.
*	*	*	*	*ij	*ij	*	*	*	*
4D/	.	.	1d	Ma-	pro	1D	.	.	.
4C/	.	-ce-	.	.	.	.	.	.	.
2D/	-a	-de	.	.	.	.	.	.	.
=53-	=53-	=53-	=53-	=53-	=53-	=53-	=53-	=53-	=53-
2.AA/	Ma-	pro	2.c\	.	no-	[0El;;	-a.	-bis.	-ster.
4BB/	.	.	4B\	.	.	.	.	.	.
4C/	.	.	2A/	.	.	.	.	.	.
4D/	.	.	.	.	.	.	.	.	.
2E\	.	.	2G/	.	.	.	.	.	.
=54-	=54-	=54-	=54-	=54-	=54-	=54-	=54-	=54-	=54-
2C/	.	no-	2A/	.	.	0E_	.	.	.
2AA/	.	-bis	2c\	.	.	.	.	.	.
*	*	*ij	*	*	*	*	*	*	*
1E	.	pro	2B\	.	.	.	.	.	.
.	.	.	1c\	ri-	.	.	.	.	.
=55-	=55-	=55-	=55-	=55-	=55-	=55-	=55-	=55-	=55-
1AA	-ri-	no-	.	.	.	0E]	.	.	.
.	.	.	4B\	.	.	.	.	.	.
.	.	.	4A\	.	.	.	.	.	.
!	!	!	!LO:TX:t=P:problem=♯ above/below	!	!	!	!	!	!
1El;;	-a	-bis	1G#Xl;;	-a	-bis	.	.	.	.
*	*	*Xij	*	*Xij	*Xij	*	*	*	*
==	==	==	==	==	==	==	==	==	==
*-	*-	*-	*-	*-	*-	*-	*-	*-	*-
!!!system-decoration: [g1]
!!!RDF**kern: > = above
!!!RDF**kern: < = below
!!!RDF**kern: l = terminal long
!!!AIN: 1 empty 1 tenor 1 vox
!!!ENC: Andrzej Kubiczek
!!!END: 2021-03-23
!!!ENC: Andrzej Kubiczek
!!!END: 2021-03-07
